!!!OTL: HURRE HURRE HURRE SCHNURRE RAEDCHEN SCHNURRE
!!!ARE: Europa, Mitteleuropa, Deutschland
!!!SCT: B0613
!!!YEM: Copyright 1995, estate of Helmut Schaffrath.
**kern
*ICvox
*Ivox
*M2/4
*k[f#]
*G:
=1
{8.dd
16cc
8b
8dd
=2
4cc
4a}
=3
{8b
8g
8f#
8g
=4
16a
16g
16f#
16e
8d
8r}
=5
{8g
8d
8a
8d
=6
8.b
16ee
4dd}
=7
{8gg
16ff#
16ee
8dd
16cc
16b
=8
16a
16g
16f#
16e
4d}
=9
{8.e
16a
8g
8f#
=10
4a
8g
8r}
==
!!!AGN: Lied bei der Arbeit
!!!ONB: ESAC (Essen Associative Code) Database: BOEHME
!!!AMT: simple duple
!!!AIN: vox
!!!EED: Helmut Schaffrath
!!!EEV: 1.0
*-
